X:1678
T:Bobby Casey's
M:4/4
L:1/8
R:hornpipe
D:Kevin Burke: If the Cap Fits
Z:Devin McCabe
K:ADor
ed|:c2 AB c3 d|eaag e/2f/2e dB|BccA ~B3 c|~d3 e dBGB|
!A^GAB c3 d|eaag e/2/f/2e dB|cAAc dBGB|1A/2B/2A AG A2 ed:|2A/2B/2A AG A2
(3Bcd|
!:ea (3aaa aged|ea (3aaa aged|eg (3ggg ge d2|eg (3ggg gedB|
!A^GAB c3 d|eaag e/2/f/2e dB|cAAc dBGB|1A/2B/2A AG A2 (3Bcd:|2A/2B/2A AG
A2 ed||
